resources/img/scalable/actions/flypie-smelly-symbolic.svg

<?xml version="1.0" encoding="UTF-8" standalone="no"?>
<svg
   xmlns:dc="http://purl.org/dc/elements/1.1/"
   xmlns:cc="http://creativecommons.org/ns#"
   xmlns:rdf="http://www.w3.org/1999/02/22-rdf-syntax-ns#"
   xmlns:svg="http://www.w3.org/2000/svg"
   xmlns="http://www.w3.org/2000/svg"
   xmlns:sodipodi="http://sodipodi.sourceforge.net/DTD/sodipodi-0.dtd"
   xmlns:inkscape="http://www.inkscape.org/namespaces/inkscape"
   width="4.2333mm"
   height="4.2333mm"
   version="1.1"
   viewBox="0 0 4.2333 4.2333"
   id="svg14"
   sodipodi:docname="flypie-smelly-symbolic.svg"
   inkscape:version="1.0.2 (e86c870879, 2021-01-15)">
  <defs
     id="defs18" />
  <sodipodi:namedview
     pagecolor="#ffffff"
     bordercolor="#666666"
     borderopacity="1"
     objecttolerance="10"
     gridtolerance="10"
     guidetolerance="10"
     inkscape:pageopacity="0"
     inkscape:pageshadow="2"
     inkscape:window-width="1920"
     inkscape:window-height="1131"
     id="namedview16"
     showgrid="false"
     inkscape:zoom="12.959127"
     inkscape:cx="-1.686595"
     inkscape:cy="5.9280648"
     inkscape:window-x="0"
     inkscape:window-y="32"
     inkscape:window-maximized="1"
     inkscape:current-layer="svg14"
     inkscape:document-rotation="0" />
  <metadata
     id="metadata2">
    <rdf:RDF>
      <cc:Work
         rdf:about="">
        <dc:format>image/svg+xml</dc:format>
        <dc:type
           rdf:resource="http://purl.org/dc/dcmitype/StillImage" />
        <dc:title></dc:title>
      </cc:Work>
    </rdf:RDF>
  </metadata>
  <path
     id="path4416-3"
     d="m 0.2715732,2.7984208 c -0.001058,0.035629 5.2917e-4,0.071226 0.005159,0.1064551 0.0186002,0.1409118 0.0821372,0.2756614 0.18758428,0.3808545 A 0.26460978,0.26460978 0 1 0 0.83793761,2.9110751 c -0.0431482,-0.043042 -0.0510725,-0.1055979 -0.020664,-0.1581282 0.0304006,-0.052538 0.0900483,-0.076827 0.14934406,-0.060979 0.0592984,0.015849 0.0976709,0.066162 0.0976709,0.1266058 V 4.2649982 H 1.5934553 V 2.8185741 C 1.5934553,2.5206136 1.3907765,2.2572818 1.1030448,2.18037 0.81531574,2.1034583 0.50865308,2.22999 0.3594228,2.487845 0.30346078,2.5845422 0.27472439,2.6915318 0.2715732,2.7984208 Z M 0.53615652,1.0068001 C 0.55848735,1.4162243 0.85428357,1.7755681 1.2684094,1.863595 A 0.26468381,0.26468381 0 1 0 1.3784813,1.3457975 C 1.1721407,1.3019375 1.0385473,1.1113105 1.0679055,0.90241408 1.0972637,0.69351496 1.2786302,0.54715541 1.4890692,0.56186624 1.6995056,0.57657972 1.8580386,0.74675442 1.8580386,0.9577067 V 4.2649982 H 2.3872052 V 0.9577067 C 2.3872052,0.47384466 2.0084436,0.06748437 1.525759,0.03373148 1.0430743,-2.14184e-5 0.61124791,0.34987944 0.54390617,0.82903189 0.53549217,0.88892559 0.53297887,0.94831135 0.53615417,1.0068001 Z M 2.6517886,4.2649982 H 3.1809552 V 1.619165 a 0.26460975,0.26460975 0 0 0 0,-5.292e-4 c 0,-0.1237191 0.082812,-0.2282295 0.2036048,-0.2568336 0.1207929,-0.028602 0.2420514,0.027876 0.2976562,0.1384935 0.055605,0.1106169 0.028345,0.240747 -0.066662,0.3203945 A 0.26465986,0.26465986 0 1 0 3.9555837,2.2263493 C 4.0959478,2.1086759 4.1869724,1.9494682 4.2222361,1.7788331 4.2574997,1.6081954 4.2373173,1.4262361 4.1550557,1.2625834 3.9905299,0.93528062 3.6190761,0.76217963 3.262603,0.84658964 2.9061325,0.93101289 2.6517886,1.2523202 2.6517886,1.6186491 a 0.26460975,0.26460975 0 0 0 0,5.159e-4 z"
     style="color:#000000;font-style:normal;font-variant:normal;font-weight:normal;font-stretch:normal;font-size:medium;line-height:normal;font-family:sans-serif;font-variant-ligatures:normal;font-variant-position:normal;font-variant-caps:normal;font-variant-numeric:normal;font-variant-alternates:normal;font-feature-settings:normal;text-indent:0;text-align:start;text-decoration:none;text-decoration-line:none;text-decoration-style:solid;text-decoration-color:#000000;letter-spacing:normal;word-spacing:normal;text-transform:none;writing-mode:lr-tb;direction:ltr;text-orientation:mixed;dominant-baseline:auto;baseline-shift:baseline;text-anchor:start;white-space:normal;shape-padding:0;clip-rule:nonzero;display:inline;overflow:visible;visibility:visible;isolation:auto;mix-blend-mode:normal;color-interpolation:sRGB;color-interpolation-filters:linearRGB;solid-color:#000000;solid-opacity:1;vector-effect:none;fill:#2e3436;fill-opacity:1;fill-rule:nonzero;stroke:none;stroke-width:0.529167;stroke-linecap:round;stroke-linejoin:round;stroke-miterlimit:4;stroke-dasharray:none;stroke-dashoffset:56;stroke-opacity:1;color-rendering:auto;image-rendering:auto;shape-rendering:auto;text-rendering:auto;enable-background:new" />
</svg>

<svg xmlns="http://www.w3.org/2000/svg" width="16" height="16" viewBox="0 0 4.233 4.233"><path d="M.272 2.798a.665.665 0 0 0 .192.488.265.265 0 1 0 .374-.375.128.128 0 0 1-.02-.158.13.13 0 0 1 .149-.061c.059.016.097.066.097.127v1.446h.53V2.819a.663.663 0 0 0-1.235-.331.658.658 0 0 0-.087.31Zm.264-1.791a.93.93 0 0 0 .732.857.265.265 0 1 0 .11-.518.393.393 0 0 1-.31-.444.394.394 0 0 1 .421-.34c.21.015.369.185.369.396v3.307h.53V.958a.93.93 0 0 0-.862-.924.93.93 0 0 0-.99.973Zm2.116 3.258h.529V1.619c0-.124.083-.229.204-.257a.263.263 0 0 1 .297.138c.056.11.029.241-.066.32a.265.265 0 1 0 .34.406.792.792 0 1 0-1.304-.607z" style="color:#000;font-style:normal;font-variant:normal;font-weight:400;font-stretch:normal;font-size:medium;line-height:normal;font-family:sans-serif;font-variant-ligatures:normal;font-variant-position:normal;font-variant-caps:normal;font-variant-numeric:normal;font-variant-alternates:normal;font-feature-settings:normal;text-indent:0;text-align:start;text-decoration:none;text-decoration-line:none;text-decoration-style:solid;text-decoration-color:#000;letter-spacing:normal;word-spacing:normal;text-transform:none;writing-mode:lr-tb;direction:ltr;text-orientation:mixed;dominant-baseline:auto;baseline-shift:baseline;text-anchor:start;white-space:normal;shape-padding:0;clip-rule:nonzero;display:inline;overflow:visible;visibility:visible;isolation:auto;mix-blend-mode:normal;color-interpolation:sRGB;color-interpolation-filters:linearRGB;solid-color:#000;solid-opacity:1;vector-effect:none;fill:#2e3436;fill-opacity:1;fill-rule:nonzero;stroke:none;stroke-width:.529167;stroke-linecap:round;stroke-linejoin:round;stroke-miterlimit:4;stroke-dasharray:none;stroke-dashoffset:56;stroke-opacity:1;color-rendering:auto;image-rendering:auto;shape-rendering:auto;text-rendering:auto;enable-background:new"/></svg>
